X:1
T:Title
L:1/8
M:4/4
K:Eb
V:1 treble nm="Grand Piano"
V:1
 z4 z[Q:1/4=100] GGF | G>F E2- EAAG | A>G F2- FFFE | F>E D2- DD E>A | G4- GG/G/ GF | %5
 G>F E2- EA/A/ AG | A>G F2- FF/F/ FE | F>E D2 DDEA |[M:5/8] G- G3 z |[M:3/8] GGG | %10
[M:4/4] c2 c2 ccdc | d3 c BBBB | c2 A2 A>A BA | G4- GGGG | c2 c2 ccdc | d3 c BBBB | c2 A2 A>A BA | %17
 G6 z2 |] %18

